X: 37373
T: Sleeper, The
R: jig
M: 6/8
K: Ddorian
M:7/8
DED FD GD|AGc AG FE|DED FD GF|EcG ED CE|
DED FD GD|ABA cA dc|BdB GB FB|GcG ED CE:|
|:FEF cF dc|Bdc BA GE|FEF cF dF|edc dc BG|
[1 FEF cF dc|Bdc BA GB|cBc dB GB|cBc dB GE:|
[2 FEF cF d2|M:6/8
edc dcB|cBA BAG|M:9/8
FGA GBd cGE||

